X: 3241
T: Ain Kind Dearie.   a Reel.
%R: reel
B: Niel Gow & Sons "Complete Repository" v.3 p.24 #1
Z: 2021 John Chambers <jc:trillian.mit.edu>
M: C|
L: 1/8
K: A
% - - - - - - - - - -
V: 1 staves=2
B |\
A>F EF A2AB | (B/B/c) TB>A BFF>B | AFEF A2Aa | Tf2ec eAA :| f | (ef/g/) ae Tfe ac | B/B/B Tc>A BFF>B |
A>FEF A2Aa | Tf2ec eAAf || (ef/g/) ae Tf>e ac | B/B/B Tc>A BFFB | AFEF ABce | faef cAA |]
% - - - - - - - - - -
V: 2 clef=bass middle=d
z |
A2A2 A2A2 | A2A2 B2B2 | A2A2 c2c2 | d2e2 A2A :| z | a2a2 a2a2 | b2b2 b2b2 |
a2a2 c2c2 | d2e2 A2A2 || a2a2 a2a2 | b2b2 b2b2 | a2a2 c2c2 | d2e2 A2A |]


